X: 30322
T: BRADSHAW'S WALTZ
C:
%R: waltz
B: Elias Howe "The Musician's Companion" Part 3 1844 p.32 #2
S: http://imslp.org/wiki/The_Musician's_Companion_(Howe,_Elias)
S: https://archive.org/stream/firstthirdpartof03howe/#page/66/mode/1up
Z: 2016 John Chambers <jc:trillian.mit.edu>
M: 3/8
L: 1/16
K: C
% - - - - - - - - - - - - - - - - - - - - - - - - -
G2 |\
cBcde2 | dcdef2 | BABcdB | cdefg2 |\
cBcde2 | dcdef2 | bagfed | "^FINE"c4 :|
Bc |\
dededB | g^fedcB | A^GABcd | B2GABc |\
dededB | d'c'bag^f | edcBAd | "^D.C."G4 |]
% - - - - - - - - - - - - - - - - - - - - - - - - -

